X:1
T:O amante
T:O amante
T:Giovanni Ghizzolo
C:Giovanni Ghizzolo
%%score [ 1 2 ] { 3 | 4 }
L:1/8
Q:1/4=120
M:4/4
K:F
V:1 treble nm="Soprano" snm="S"
V:2 bass nm="Bass" snm="B"
V:3 treble nm="MusicXML Part"
V:4 bass 
V:1
"^Source:Madrigali et Arie---Libo primo---Venetia---A.Raverij---1609.\nEditor André Vierendeels (01/12/09)\nContinuo: André Vierendeels" c2 B2 A4- | %1
w: O a- man-|
w: Se ti dier|
w: Se mi se-|
w: Quel- la sol|
 A2 G2 F2 F2 | E4 E4 | D2 E2 F4- | F2 G2 G3 F | F4 F4 :: A2 B2 c4- | c2 A2 B2 G2 | A4 A4 | %9
w: * te se non|sai a|tu- e spe-|* se'im- pa- re-|ra- i.|Che non so-|* lo per un|gior- no|
w: _ di- let- to'in|sguar- di|non ti dog-|lia- no gli- _|dar- di|ben ti bas-|* ta'un sol con-|for- to|
w: * gue se mi|fug- gi|sem- pr'e for-|* za che mi|strug- gi|e la pia-|* ga si duol|di- re|
w: _ puo dar- t'a-|i- ta|per cui l'al-|* ma sua ma-|ri- ta|non ti sia|_ gra- ve'il pe-|na- re|
 A2 G2 F4 | z2 G2 G3 F | F4 F4 :: C2 C2 D4- | D2 F2 G3 F | F8 | F8 |] %16
w: l'huo- mo'ac- quis-|un vi- so'a-|dor- no,|l'huo- mo'ac- qui-|* ta'un vi- so'a-|dor-|no.|
w: di co- lei|che t'ha gia|mor- to,|di- co- lei|_ che t'ha gia|mor-|to.|
w: non gua- ris-|ce per fug-|gi- re,|non gua- ris-|* ce per fug-|gi-|re.|
w: che cio'a- vien|sol per a-|ma- re|che cio'a- vien|_ sol per a-|ma-|re.|
V:2
 F,2 G,2 F,4- | F,2 E,2 D,2 D,2 | C,4 C,4 | B,,2 C,2 D,4 | B,,4 C,3 C, | F,,4 F,,4 :: F,2 G,2 A,4 | %7
w: O a- man-|* te se non|sai a|tu- e spe-|se'im- pa- re-|ra- i.|Che non so-|
w: Se ti dier|_ di- let- to'in|sguar- di|non ti dog-|lia- no gli|dr- di|ben- ti bas-|
w: Se mi se-|* gui se mi|fug- gi|sem- pr'e for-|za che mi|strg- gi|e la pia-|
w: Quel- la sol|_ puo dar- ti'a-|i- ta|per cui l'al-|ma sua ma-|ri- ta|non ti sia|
 F,4 G,2 E,2 | F,4 F,4 | F,2 E,2 D,3 C, | B,,2 B,,2 C,3 C, | F,,4 F,,4 :: F,,2 F,,2 B,,4- | %13
w: lo per un|gior- no|l'huo- mo'ac- * quis-|sta un vi- so'a-|dor- no,|l'huom- o'ac- qui|
w: ta'un sol con-|for- to|di co- le- i|che t'ha gi- a|mor- o,|di- co- lei|
w: ga si duol|di- re|non gua- * ris-|ce per _ fug-|gi- re|non gua- ris-|
w: gra- ve'il pe-|na- re|che ci- o a-|vien sol per a-|ma- re|che cio'a- vien|
 B,,2 D,2 C,3 F,, | F,,8 | F,,8 |] %16
w: _ ta'un vi- so'a-|dor-|no.|
w: _ che t'ha gia|mor-|to.|
w: * ce per fug-|gi-|re|
w: _ per sol a-|ma-|re.|
V:3
 [FA]2 G2 [A-c]4 | c2 G2 [FA]4 | [Gc]8 | B2 G2 [DFA]4 | [DG]4 [EG]4 | [FAc]8 :: %6
 [Fc]2 [GB]2 [Fc]4- | [Fc]4 [DB]2 [EG]2 | [FAc]8 | F2 G2 [FA]4 | %10
 [DG]4 [EG]4"^Note: original keys: Ut 1st, Fa 4rth" | [FAc]8 :: [FA]4 [EG]4 | G2 [FA]2 F2 E2 | %14
 [F-Ac-]8 | [FAc]8 |] %16
V:4
 F,2 G,2 F,4- | F,2 E,2 D,2 D,2 | C,4 C,4 | B,,2 C,2 D,4 | B,,4 C,3 C, | F,,4 F,,4 :: F,2 G,2 A,4 | %7
 F,4 G,2 E,2 | F,4 F,4 | F,2 E,2 D,3 C, | B,,2 B,,2 C,3 C, | F,,4 F,,4 :: F,,2 F,,2 B,,4- | %13
 B,,2 D,2 C,3 C, | F,,8 | F,,8 |] %16

